illustrations/assets/Success/il_axis_success_light.svg

<svg xmlns="http://www.w3.org/2000/svg" width="231" height="160" fill="none" viewBox="0 0 231 160">
  <path fill="#EBE2D7" d="m197.974 75.6311 2.085-.9274c.695-.2319.695-1.1593 0-1.3912l-2.085-.9274c-2.549-1.1593-4.634-3.2461-5.793-5.7966l-.927-2.0867c-.231-.6956-1.158-.6956-1.39 0l-.927 2.0867c-1.158 2.5505-3.243 4.6373-5.792 5.7966l-2.085.9274c-.695.2319-.695 1.1593 0 1.3912l2.085.9274c2.549 1.1593 4.634 3.2461 5.792 5.7965l.927 2.0868c.232.6956 1.159.6956 1.39 0l.927-2.0868c.927-2.5504 3.012-4.6372 5.793-5.7965ZM191.785 109.078l1.39-.696c.463-.232.463-.696 0-.928l-1.39-.463c-1.854-.696-3.244-2.087-3.939-3.942l-.695-1.391c-.232-.464-.695-.464-.927 0l-.463 1.391c-.927 1.855-2.317 3.246-3.939 3.942l-1.622.695c-.231 0-.231.696 0 .696l1.39.696c1.854.695 3.244 2.086 4.171 3.941l.695 1.391c.232.464.695.464.927 0l.463-1.391c.695-1.855 2.085-3.246 3.939-3.941ZM47.8866 133.959l2.0852-.927c.6951-.232.6951-1.159 0-1.391l-2.0852-.928c-2.5487-1.159-4.6339-3.246-5.7924-5.796l-.9267-2.087c-.2317-.696-1.1585-.696-1.3902 0l-.9268 2.087c-1.1585 2.55-3.2437 4.637-5.7923 5.796l-2.0853.928c-.6951.232-.6951 1.159 0 1.391l2.0853.927c2.5486 1.16 4.6338 3.246 5.7923 5.797l.9268 2.087c.2317.695 1.1585.695 1.3902 0l.9267-2.087c.9268-2.551 3.0121-4.637 5.7924-5.797ZM48.7267 30.3345l1.3902-.6956c.4634-.2319.4634-.6956 0-.9275l-1.3902-.4637c-1.8535-.6956-3.2437-2.0867-3.9388-3.9416l-.695-1.3912c-.2317-.4637-.6951-.4637-.9268 0l-.4634 1.3912c-.9268 1.8549-2.317 3.246-3.9388 3.9416l-1.6219.6956c-.2317 0-.2317.6956 0 .6956l1.3902.6956c1.8535.6956 3.2437 2.0867 4.1705 3.9416l.6951 1.3912c.2317.4637.6951.4637.9267 0l.4634-1.3912c.6951-1.8549 2.0853-3.246 3.9388-3.9416ZM66.5664 13.9704l1.1585-.4637c.2317-.2319.2317-.4637 0-.6956l-1.1585-.4637c-1.3902-.4637-2.3169-1.623-3.012-3.0142l-.4634-1.1593c-.2317-.2319-.4634-.2319-.6951 0l-.4634 1.1593c-.4634 1.3912-1.6218 2.3186-3.012 3.0142l-.6951.4637c-.4634.2319-.4634.6956 0 .6956l1.1585.4637c1.3901.4637 2.3169 1.623 3.012 3.0142l.4634 1.1593c.2317.2319.4634.2319.6951 0l.4634-1.1593c.2317-1.3912 1.3901-2.5505 2.5486-3.0142Z"/>
  <path fill="#fff" d="M115.557 144.8c30.857 0 55.87-25.014 55.87-55.8699 0-30.8562-25.013-55.87-55.87-55.87-30.8558 0-55.8696 25.0138-55.8696 55.87 0 30.8559 25.0138 55.8699 55.8696 55.8699Z"/>
  <g filter="url(#filter0_d_3871_354031)">
    <path fill="url(#paint0_linear_3871_354031)" d="M115.557 144.8c30.857 0 55.87-25.014 55.87-55.8699 0-30.8562-25.013-55.87-55.87-55.87-30.8558 0-55.8696 25.0138-55.8696 55.87 0 30.8559 25.0138 55.8699 55.8696 55.8699Z"/>
  </g>
  <path fill="url(#paint1_linear_3871_354031)" d="M105.669 114.517c-1.446 0-2.807-.532-3.913-1.683L82.9582 93.2594c-2.1265-2.2143-2.1265-5.9344 0-8.1487 2.1265-2.2143 5.699-2.2143 7.8255 0l14.8853 15.5003 35.045-36.4035c2.126-2.2143 5.699-2.2143 7.825 0 2.127 2.2143 2.127 5.9344 0 8.1487l-38.957 40.4778c-1.021 1.151-2.467 1.683-3.913 1.683Z"/>
  <defs>
    <linearGradient id="paint0_linear_3871_354031" x1="115.521" x2="115.521" y1="30.4754" y2="146.005" gradientUnits="userSpaceOnUse">
      <stop stop-color="#FDFEFF"/>
      <stop offset=".9964" stop-color="#F5F2EC"/>
    </linearGradient>
    <linearGradient id="paint1_linear_3871_354031" x1="115.111" x2="115.754" y1="54.6577" y2="93.5224" gradientUnits="userSpaceOnUse">
      <stop stop-color="#E1DAD0"/>
      <stop offset="1" stop-color="#CCC1B1"/>
    </linearGradient>
    <filter id="filter0_d_3871_354031" width="124.34" height="124.34" x="53.3874" y="27.6601" color-interpolation-filters="sRGB" filterUnits="userSpaceOnUse">
      <feFlood flood-opacity="0" result="BackgroundImageFix"/>
      <feColorMatrix in="SourceAlpha" result="hardAlpha" values="0 0 0 0 0 0 0 0 0 0 0 0 0 0 0 0 0 0 127 0"/>
      <feOffset dy=".9"/>
      <feGaussianBlur stdDeviation="3.15"/>
      <feColorMatrix values="0 0 0 0 0.576471 0 0 0 0 0.501961 0 0 0 0 0.396078 0 0 0 0.37 0"/>
      <feBlend in2="BackgroundImageFix" result="effect1_dropShadow_3871_354031"/>
      <feBlend in="SourceGraphic" in2="effect1_dropShadow_3871_354031" result="shape"/>
    </filter>
  </defs>
</svg>

<svg width="231" height="160" viewBox="0 0 231 160" fill="none" xmlns="http://www.w3.org/2000/svg">
<path d="M197.974 75.6311L200.059 74.7037C200.754 74.4718 200.754 73.5444 200.059 73.3125L197.974 72.3851C195.425 71.2258 193.34 69.139 192.181 66.5885L191.254 64.5018C191.023 63.8062 190.096 63.8062 189.864 64.5018L188.937 66.5885C187.779 69.139 185.694 71.2258 183.145 72.3851L181.06 73.3125C180.365 73.5444 180.365 74.4718 181.06 74.7037L183.145 75.6311C185.694 76.7904 187.779 78.8772 188.937 81.4276L189.864 83.5144C190.096 84.21 191.023 84.21 191.254 83.5144L192.181 81.4276C193.108 78.8772 195.193 76.7904 197.974 75.6311Z" fill="#EBE2D7"/>
<path d="M191.785 109.078L193.175 108.382C193.638 108.15 193.638 107.686 193.175 107.454L191.785 106.991C189.931 106.295 188.541 104.904 187.846 103.049L187.151 101.658C186.919 101.194 186.456 101.194 186.224 101.658L185.761 103.049C184.834 104.904 183.444 106.295 181.822 106.991L180.2 107.686C179.969 107.686 179.969 108.382 180.2 108.382L181.59 109.078C183.444 109.773 184.834 111.164 185.761 113.019L186.456 114.41C186.688 114.874 187.151 114.874 187.383 114.41L187.846 113.019C188.541 111.164 189.931 109.773 191.785 109.078Z" fill="#EBE2D7"/>
<path d="M47.8866 133.959L49.9718 133.032C50.6669 132.8 50.6669 131.873 49.9718 131.641L47.8866 130.713C45.3379 129.554 43.2527 127.467 42.0942 124.917L41.1674 122.83C40.9358 122.134 40.009 122.134 39.7773 122.83L38.8505 124.917C37.692 127.467 35.6068 129.554 33.0582 130.713L30.9729 131.641C30.2778 131.873 30.2778 132.8 30.9729 133.032L33.0582 133.959C35.6068 135.119 37.692 137.205 38.8505 139.756L39.7773 141.843C40.009 142.538 40.9358 142.538 41.1674 141.843L42.0942 139.756C43.021 137.205 45.1063 135.119 47.8866 133.959Z" fill="#EBE2D7"/>
<path d="M48.7267 30.3345L50.1169 29.6389C50.5803 29.407 50.5803 28.9433 50.1169 28.7114L48.7267 28.2477C46.8732 27.5521 45.483 26.161 44.7879 24.3061L44.0929 22.9149C43.8612 22.4512 43.3978 22.4512 43.1661 22.9149L42.7027 24.3061C41.7759 26.161 40.3857 27.5521 38.7639 28.2477L37.142 28.9433C36.9103 28.9433 36.9103 29.6389 37.142 29.6389L38.5322 30.3345C40.3857 31.0301 41.7759 32.4212 42.7027 34.2761L43.3978 35.6673C43.6295 36.131 44.0929 36.131 44.3245 35.6673L44.7879 34.2761C45.483 32.4212 46.8732 31.0301 48.7267 30.3345Z" fill="#EBE2D7"/>
<path d="M66.5664 13.9704L67.7249 13.5067C67.9566 13.2748 67.9566 13.043 67.7249 12.8111L66.5664 12.3474C65.1762 11.8837 64.2495 10.7244 63.5544 9.3332L63.091 8.1739C62.8593 7.94203 62.6276 7.94203 62.3959 8.1739L61.9325 9.3332C61.4691 10.7244 60.3107 11.6518 58.9205 12.3474L58.2254 12.8111C57.762 13.043 57.762 13.5067 58.2254 13.5067L59.3839 13.9704C60.774 14.4341 61.7008 15.5934 62.3959 16.9846L62.8593 18.1439C63.091 18.3758 63.3227 18.3758 63.5544 18.1439L64.0178 16.9846C64.2495 15.5934 65.4079 14.4341 66.5664 13.9704Z" fill="#EBE2D7"/>
<path d="M115.557 144.8C146.414 144.8 171.427 119.786 171.427 88.9301C171.427 58.0739 146.414 33.0601 115.557 33.0601C84.7012 33.0601 59.6874 58.0739 59.6874 88.9301C59.6874 119.786 84.7012 144.8 115.557 144.8Z" fill="white"/>
<g filter="url(#filter0_d_3871_354031)">
<path d="M115.557 144.8C146.414 144.8 171.427 119.786 171.427 88.9301C171.427 58.0739 146.414 33.0601 115.557 33.0601C84.7012 33.0601 59.6874 58.0739 59.6874 88.9301C59.6874 119.786 84.7012 144.8 115.557 144.8Z" fill="url(#paint0_linear_3871_354031)"/>
</g>
<path d="M105.669 114.517C104.223 114.517 102.862 113.985 101.756 112.834L82.9582 93.2594C80.8317 91.0451 80.8317 87.325 82.9582 85.1107C85.0847 82.8964 88.6572 82.8964 90.7837 85.1107L105.669 100.611L140.714 64.2075C142.84 61.9932 146.413 61.9932 148.539 64.2075C150.666 66.4218 150.666 70.1419 148.539 72.3562L109.582 112.834C108.561 113.985 107.115 114.517 105.669 114.517Z" fill="url(#paint1_linear_3871_354031)"/>
<defs>
<filter id="filter0_d_3871_354031" x="53.3874" y="27.6601" width="124.34" height="124.34" filterUnits="userSpaceOnUse" color-interpolation-filters="sRGB">
<feFlood flood-opacity="0" result="BackgroundImageFix"/>
<feColorMatrix in="SourceAlpha" type="matrix" values="0 0 0 0 0 0 0 0 0 0 0 0 0 0 0 0 0 0 127 0" result="hardAlpha"/>
<feOffset dy="0.9"/>
<feGaussianBlur stdDeviation="3.15"/>
<feColorMatrix type="matrix" values="0 0 0 0 0.576471 0 0 0 0 0.501961 0 0 0 0 0.396078 0 0 0 0.37 0"/>
<feBlend mode="normal" in2="BackgroundImageFix" result="effect1_dropShadow_3871_354031"/>
<feBlend mode="normal" in="SourceGraphic" in2="effect1_dropShadow_3871_354031" result="shape"/>
</filter>
<linearGradient id="paint0_linear_3871_354031" x1="115.521" y1="30.4754" x2="115.521" y2="146.005" gradientUnits="userSpaceOnUse">
<stop stop-color="#FDFEFF"/>
<stop offset="0.9964" stop-color="#F5F2EC"/>
</linearGradient>
<linearGradient id="paint1_linear_3871_354031" x1="115.111" y1="54.6577" x2="115.754" y2="93.5224" gradientUnits="userSpaceOnUse">
<stop stop-color="#E1DAD0"/>
<stop offset="1" stop-color="#CCC1B1"/>
</linearGradient>
</defs>
</svg>
